dist/svgs/devui-icons/op/modify-trace.svg

<?xml version="1.0" encoding="UTF-8"?>
<svg width="16px" height="16px" viewBox="0 0 16 16" version="1.1" xmlns="http://www.w3.org/2000/svg" xmlns:xlink="http://www.w3.org/1999/xlink">
    <title>操作/修改追溯</title>
    <desc>Created with Sketch.</desc>
    <g id="操作/修改追溯" stroke="none" stroke-width="1" fill="none" fill-rule="evenodd">
        <g id="修改追溯">
            <path d="M8,2 L8,4 L2,4 L2,14 L12,14 L12,7 L14,7 L14,15 C14,15.5522847 13.5522847,16 13,16 L1,16 C0.44771525,16 6.76353751e-17,15.5522847 0,15 L0,3 C-6.76353751e-17,2.44771525 0.44771525,2 1,2 L8,2 Z" id="合并形状" fill="#293040"></path>
            <polygon id="Path" fill="#293040" points="3 8 5 8 5 9 3 9"></polygon>
            <polygon id="Path" fill="#293040" points="3 6 6 6 6 7 3 7"></polygon>
            <polygon id="Path" fill="#293040" points="3 10 11 10 11 11 3 11"></polygon>
            <polygon id="Path" fill="#293040" points="3 12 11 12 11 13 3 13"></polygon>
            <polygon id="矩形" fill="#293040" transform="translate(10.242641, 5.242641) rotate(45.000000) translate(-10.242641, -5.242641) " points="9.24264069 0.242640687 11.2426407 0.242640687 11.2426407 8.24264069 10.2426407 10.2426407 9.24264069 8.24264069"></polygon>
        </g>
    </g>
</svg>

<svg xmlns="http://www.w3.org/2000/svg" viewBox="0 0 16 16"><g fill-rule="evenodd"><path d="M8 2v2H2v10h10V7h2v8a1 1 0 01-1 1H1a1 1 0 01-1-1V3a1 1 0 011-1h7z"/><path d="M3 8h2v1H3zm0-2h3v1H3zm0 4h8v1H3zm0 2h8v1H3zM13.071 1l1.414 1.414-5.657 5.657-2.12.707.706-2.121z"/></g></svg>
